app/dist/common/images/silgan-holdings.svg

<svg height="18" width="18" xmlns="http://www.w3.org/2000/svg"><path d="m0 0h18v18h-18z" fill="#0046ad"/><path d="m6 9v-5h2zm6 0v5h-2zm-6 .37 3-5.37h2l-5 6zm6-.738-3 5.368h-2l5-6zm2-4.632h-2l-6 6.364v.636zm-10 10h2l6-6.364v-.636z" fill="#fff"/></svg>

<!-- by TradingView --><svg width="18" height="18" xmlns="http://www.w3.org/2000/svg"><path fill="#0046AD" d="M0 0h18v18H0z"/><path d="M6 9V4h2L6 9zM12 9v5h-2l2-5zM6 9.37L9 4h2l-5 6v-.63zM12 8.632L9 14H7l5-6v.632zM14 4h-2l-6 6.364V11l8-7zM4 14h2l6-6.364V7l-8 7z" fill="#fff"/></svg>
